X: 12474
T: Farewell To Dairy
R: reel
M: 4/4
K: Dmajor
DE|:FABd B3A|BdBA BAFE|DB,A,B, D3F|EDEF D3E|
FABd B3A|BdBA Bcdf|edea f2ed|1 edef d3A:|2 edef dgfd||
|:efdA B4-|B4 zgfd|efdA F4-|F4 zgfd|
efdA GB,DG|ADCD Bcdf|edea f2ed|1 edef dgfd:|2 edef d3A||

